X: 2
T: Karins brudvals
C: Anders Eriksson
S: Bruce Sagan's "scanfolk" session archive 2021-7-18
F: https://app.box.com/s/u6iiren0igvsukrhdducy7orq72jayq8/file/835432066735
R: waltz
Z: 2021 John Chambers <jc:trillian.mit.edu>
M: 3/4
L: 1/8
K: D
% = = = = = = = = = =
V: 1 staves=2
"^A"|: A2 |\
"D"{A}d2 (AF) Ad | "A"~c2 (AE) Ac | "G"{c}d2 (B3 G) | "D"A4 A2 |\
"G"B2 (g2 ~f2) | "E7"e4 d2 | "A"c2 (~BA) Bc | A3 A Bc |
"D"{A}d2 (AF) Ad | "A"~c2 (AE) Ac | "G"{c}d2 (B3 G) | "D"A3 D EF |\
"G"{F}G3 (~F E2) | "D"FA fe d2 | "A"cd ue2 uc2 |1 "D"{c}d4 "^fine"y :|2 "D"{c}d3 ||
"^B"|: c dc |\
"Bm"B2 (BF) Bc | {c}d3 (~c B2) | "A"A2 E2 FG | "D"F4 F2 |\
"Bm"f3 (g f2) | "F#"e4 ~c2 | "Bm"{c}d2 dc B2 | "F#7"{B}c3 c dc |
"Bm"B2 (BF) Bc | {c}d3 (~c B2) | "Em"e2 (e^d) ef | {f}g4 {g}a2 |\
"D"f3 e d2 | "A"ce ua2 uc2 | "D"{c}d2 (de) dc |1 {c}d3 :|1 {c}d4 y |]
% = = = = = = = = = =
V: 2
"A"|: D2 |\
"D"{D}F2 (FD) FA | "A"A2 (EC) EA | "G"{A}B2 (G3 D) | "D"F4 F2 |\
"G"G2 (B2 A2) | "E7"E3 ^G AB | "A"A2 (DC) DE | C3 C DE |
"D"{E}F2 (FD) FA | "A"A2 (EC) EA | "G"{A}B2 (G3 D) | "D"F3 A, G,A, |\
"G"{A,}B,3 (D C2) | "D"DF AG F2 | "A"EF G2 uE2 |1 "D"{E}F4 "^fine"y :|2 "D"{E}F3 ||
"^B"|: F BF |\
"Bm"D2 (DC) DF | {F}B3 (F D2) | "A"E2 C2 DE | "D"D3 (E DC) |\
"Bm"B,4 B,2 | "F#"C4 ^A,2 | "Bm"{^A,}B,2 (B,A,) B,D | "F#7"{D}F3 F BF |
"Bm"D2 (DC) DF | {F}B3 (F D2) | "Em"G2 (GF) GA | {A}B4 {B}c2 |\
"D"d3 A F2 | "A"EA uc2 uE2 | "D"{E}F2 (FG) FE |1 {E}F3 :|2 "^D.C. al Fine"{E}F4 y |]
